X:WFS 13-11 07
T:Rattling Bog
M:2/4
K:G
P:A
B2B>A | GEE2 |1,3 DGG/F/G/A/ | BAA2 :|2,4 Ddd>c | BAG2 :|
P:B
BGAG/A/ | BGAG/A/ |1,3 Bddc | BAA2 :|2,4 Bddc | BAG2 :|

%%text WFS 13-11 08 = EATMD 13-02 12 Brighton Camp

%%text WFS 13-11 09 = WFS 13-10 05 Jamie Allen, into...

